assets/icons/twitter.svg

<?xml version="1.0" encoding="UTF-8"?>
<svg width="24px" height="24px" viewBox="0 0 24 24" version="1.1" xmlns="http://www.w3.org/2000/svg" xmlns:xlink="http://www.w3.org/1999/xlink">
    <!-- Generator: Sketch 53.2 (72643) - https://sketchapp.com -->
    <title>Icon/Social/Twitter</title>
    <desc>Created with Sketch.</desc>
    <g id="Icon/Social/Twitter" stroke="none" stroke-width="1" fill="none" fill-rule="evenodd">
        <path d="M20,6.53925424 C19.4113898,6.80027119 18.7787119,6.97681356 18.1147119,7.05613559 C18.7924068,6.64989831 19.3129492,6.00650847 19.5579661,5.24 C18.9237966,5.61613559 18.2212881,5.88935593 17.4734915,6.03661017 C16.8747119,5.39864407 16.0215593,5 15.0774237,5 C13.2645424,5 11.7948475,6.46969492 11.7948475,8.28244068 C11.7948475,8.53979661 11.8238644,8.79037288 11.8797288,9.03064407 C9.15159322,8.89369492 6.73288136,7.58684746 5.11389831,5.60081356 C4.83132203,6.08569492 4.66942373,6.64949153 4.66942373,7.25111864 C4.66942373,8.3899661 5.24894915,9.39471186 6.12976271,9.98332203 C5.59159322,9.96637288 5.08542373,9.81871186 4.64298305,9.57274576 C4.64271186,9.58657627 4.64257627,9.60027119 4.64257627,9.61410169 C4.64257627,11.2044746 5.77410169,12.5312542 7.27579661,12.8328136 C7.00027119,12.9077966 6.71037288,12.9479322 6.41098305,12.9479322 C6.19945763,12.9479322 5.99389831,12.927322 5.79335593,12.8890847 C6.21111864,14.1932203 7.42345763,15.1422373 8.85979661,15.1688136 C7.73640678,16.0490847 6.32094915,16.5739661 4.78305085,16.5739661 C4.51810169,16.5739661 4.25681356,16.5583729 4,16.528 C5.45274576,17.4595254 7.17816949,18.0028475 9.03186441,18.0028475 C15.0698305,18.0028475 18.3715254,13.0009492 18.3715254,8.66318644 C18.3715254,8.52081356 18.3684068,8.37925424 18.3620339,8.23850847 C19.0033898,7.77572881 19.5598644,7.19742373 20,6.53925424" id="Shape" fill="#000000"></path>
    </g>
</svg>

<svg class="ucla-icon twitter" width="24" height="24" viewBox="0 0 24 24" aria-labelledby="icon-twitter" role="img"><title id="icon-twitter">Icon Social Twitter</title><g fill="none" fill-rule="evenodd"><path d="M20 6.54a6.563 6.563 0 0 1-1.885.516 3.292 3.292 0 0 0 1.443-1.816 6.573 6.573 0 0 1-2.085.797A3.283 3.283 0 0 0 11.88 9.03 9.32 9.32 0 0 1 5.115 5.6 3.281 3.281 0 0 0 6.13 9.984a3.266 3.266 0 0 1-1.487-.411v.041a3.285 3.285 0 0 0 2.633 3.219 3.289 3.289 0 0 1-1.483.056 3.286 3.286 0 0 0 3.067 2.28A6.587 6.587 0 0 1 4 16.528a9.29 9.29 0 0 0 5.032 1.475c6.038 0 9.34-5.002 9.34-9.34 0-.142-.004-.284-.01-.424A6.673 6.673 0 0 0 20 6.539" id="Shape" fill="#000"/></g></svg>
